X:84
T:Recruting Serjeant. JMP.084
M:C
L:1/8
Q:1/2=90
S:John Miller MS. Perth, 1799.(for the fife)
R:.Hornpipe
O:Scotland
A:Perth
H:1799
Z:vmp.C. Graebe
K:G Major
Bc | dBAB G2 AB | cAFA DFAc | Bgfe dcBA | G2 G>G G2 :|!
|:Bc | dBec d2Bd | dBec d2 Bd | dBgf edcB | A2 A>Aâ€DCâ€ A2 ğŸ˜

